X: 4161
T: Blue Keys, The
R: reel
M: 4/4
K: Amajor
|:FFBe fBBc|Bca2 c2BA|BBBc efBB|BBBA Bcec|
FFBe fBcz|Bcef c2BA|B2 BABc e2|Bcec f4:|
|:f2 babc' f2|ffez c2B2|B2BA Bcee|BBBc A2F2|
FFba bc'f2|ffec a4|abaf ecf2|ecB2 BeAF:|

